X: 2
T: The Knights Of Saint Patrick
R: jig
M: 6/8
L: 1/8
K: Dmaj
dcd faf|dcd AFD|GBG FAF|EFG AB/=c/^c|dcd faf|dcd AFD|GBd FAd|BGE D3:|aba fdf|Adf afd|gfg ece|Ace gfe|aba fdf|Adf afd|afd bge|dAF D3|aba fdf|Adf afd|gfg ece|Ace gfe|dcd ede|fef gfg|afd bge|dAF D3||


Tune 1822	Setting 1822

